!! 00000] TT[WS
!!!OTL: Weiceng xiunxige xiaonÅxu
!!!ARE: Asia, China,ˇShanxi Yanbei
!! Ethnic Group: Han
!! WI, 106 (1)
!!!SCT: J0124
!!!YEM: Copyright 1995, estate of Helmut Schaffrath.
**kern
*ICvox
*Ivox
*M2/4
*k[b-e-]
*B-:
{4ddd
8ddd
8ccc
=1
4ddd
8ddd
8ccc
=2
8ddd
8fff
8ddd
8ccc
=3
4ddd
4gg}
=4
{4.gg
8bb-
=5
4gg
4aa
=6
8gg
8aa
8gg
8ff
=7
4ddd
4r}
=8
{8gg
8dd
4ff
=9
4ff
4dd
=10
4ff
8fff
8ccc
=11
8ddd
8fff
8ddd
8ccc
=12
4fff
4gg}
=13
{4.gg
8bb-
=14
4gg
8gg
8aa
=15
8gg
8aa
8gg
8ff
=16
4dd
4r}
=17
{8gg
8bb-
8gg
8ff
=18
4dd
4r
=19
8fff
8fff
8ccc
8bb-
=20
4gg
4r}
=21
{4.gg
8bb-
=22
4gg
8gg
8aa
=23
8gg
8aa
8gg
8ff
=24
4dd
4r}
==
!!!AGN: Xiaodiao. Qingge
!!!ONB: ESAC (Essen Associative Code) Database: CHINA
!!!AMT: simple duple
!!!AIN: vox
!!!EED: Helmut Schaffrath
!!!EEV: 1.0
*-
